X:1
T:Up and Down
M:4/4
L:1/4
K:Cmaj
V: RH1 clef=treble
%%MIDI channel 4
%%MIDI program 1 4
%%MIDI gchordoff
V: LH1 clef=bass
%%MIDI channel 3
%%MIDI program 1 3
%%MIDI gchordoff
%
[V: RH1] | CDEF | G2 G2 | GFED | C2C2 | z4
[V: LH1] | z4   | z4    | z4   | z4   | z4
[V: RH1] | CDEF | G2 G2 | GFED | C2C2 | z4
[V: LH1] | z4   | z4    | z4   | z4   | z4
[V: RH1] | CDEF | GFED | C2C2 | z4
[V: LH1] | z4   | z4   | z4   | z4
%
